X:1
T:Title
%%score 1 2
L:1/8
M:4/2
K:C
V:1 treble nm="Part_1"
V:2 treble-8 nm="Part_2"
V:1
 (D8 E8) | D12 E4 | G4 F4 F4 E4 | G8 z8 | d8 _B8 | A12 _B4 | A4 G4 G4 F4 | A8 z8 | D8 A8 | B12 A4 | %10
 G8 B8 | c8 z8 | d4 c4 d4 B4 | A12 G4 | F4 G4 F4 E4 | D8 z8 | F8 G4 F4 | D12 F4 | G4 F4 F4 E4 | %19
 G8 z8 | d8 B8 | A12 B4 | A8 G8 | A8 z8 | D8 E4 F4 | (G8 A8) | G4 F4 F4 E4 | G8 |] %28
V:2
[K:F] d12 c4 | B8 c8 | (B8 A8) | G8 z8 | g8 g8 | f12 g4 | f8 e8 | d8 z8 | d12 d4 | d8 d8 | e8 d8 | %11
 c8 z8 | f12 f4 | f8 d8 | d8 c8 | B8 z8 | B12 B4 | B8 c8 | B8 A8 | G8 z8 | g12 g4 | f8 g8 | f8 e8 | %23
 d8 z8 | f12 d4 | (d8 c8) | (B8 A8) | G8 |] %28

